X:1
T:White Plains, 86.86.88.86
T:White Plains, 86.86.88.86
T:William Thomas Dale, 1879
T:Public Domain Courtesy of the Cyber Hymnal™
C:William Thomas Dale, 1879
Z:Public Domain
Z:Courtesy of the Cyber Hymnal™
%%score 1 ( 2 3 )
L:1/8
Q:1/4=95
M:3/4
K:G
V:1 treble 
V:2 bass 
V:3 bass 
V:1
|: [DB]>[CA] | [B,G]3 [DA] [EG][CE] | [B,D]2 [B,G]2 [DF]>[B,G] | [DA]4 [DB]>[CA] | [B,G]4!fine! :| %5
 [GB]>[Gc] | [Gd]3 [Ge] [Gd][GB] | [Gd]2 [GB]2 [GB]>[Gc] | [Gd]3 [Ge] [Gd][GB] | %9
 [Gd]2 [GB]2!D.C.! |] %10
V:2
|: [G,,G,]>[G,,G,] | [G,,G,]3 [B,,G,] [C,G,][C,G,] | [G,,G,]2 [G,,G,]2 [D,A,]>[D,G,] | %3
 [D,F,]4 [D,G,]>[D,F,] | [G,,G,]4 :| G,>[G,A,] | [G,B,]3 [G,C] [G,B,][G,D] | %7
 [G,B,]2 [G,D]2 G,>[G,A,] | [G,B,]3 [G,C] [G,B,][G,D] | [G,B,]2 [G,B,]2 |] %10
V:3
|: x2 | x6 | x6 | x6 | x4 :| G,3/2 x/ | x6 | x4 G,3/2 x/ | x6 | x4 |] %10

